X:1
T:Title
%%score { ( 1 4 ) | ( 2 3 ) }
L:1/8
Q:1/4=92
M:6/8
K:Ab
V:1 treble nm="Grand Piano"
V:4 treble 
V:2 bass 
V:3 bass 
V:1
 [CE]2 [CF] [CF]2 [CE] | [CA]2 [Ec] [Ec]3 | [DB]2 B BAB | [Ec]2 [DB] [CA]3 | %4
w: Chas.~H.~Gabriel * * *||||
 [CE]2 [CF] [CF]2 [CE] | [CA]2 [Ec] [Ec]3 | dc[FB] A2 A | c2 B [CA]3 | B2 B BcB | %9
w: |||||
 .[CB]2 [A,DF] [A,CE]3 | [Ec]2 [Ec] [Ec]BA | AG[=DA] [EB]3 | [Ec]2 [Ec] cB[EA] | [EA]2 [EG] F3 | %14
w: |||||
 E2 A AGA | c2 B [CA]3 | z2 E Bcd | c2 c c3 | e2 e cBA | AG[=DA] [EB]3 | z3 .c3 | [EA]2 [EG] F3 | %22
w: ||||||||
 E2 A AGA |[M:7/4] c2 B [CA]3 z2 z2 z4 |] %24
w: ||
V:2
 [A,,A,]2 [A,,A,] [A,,A,]2 [A,,A,] | [A,,A,]2 [A,,A,] [A,,A,]3 | z2 D [E,G,D][E,G,C][E,G,D] | %3
 [A,,A,]2 [A,,A,] [A,,A,]3 | [A,,A,]2 [A,,A,] [A,,A,]2 [A,,A,] | [A,,A,]2 [A,,A,] [A,,A,]3 | %6
 [B,,G,][C,A,][D,D] [E,CE]2 [E,CE] | [E,A,E]2 [E,G,D] [A,,A,]3 | [E,G,D]2 [E,G,D] DE[E,G,D] | %9
 z AA,, A,,3 | A,2 A, z D[A,C] | [F,B,=D]2 [B,,B,] [E,G,]3 | %12
 [A,,A,]2 [A,,A,] [A,,A,][B,,G,][C,A,] | [C,A,]2 [C,A,] [D,A,D]3 | %14
 [E,A,C]2 [E,CE] [F,B,=D]2 [F,B,D] | [E,A,E]2 [E,G,D] [A,,A,]3 | %16
 [E,G,E]2 [E,G,] [E,E]-[E,A,E][E,B,E] | [A,E]2 [A,E] [A,E]3 | [A,CE]2 [A,CE] ED[K:bass][A,C] | %19
 [F,B,=D]2 [B,,B,] [E,G,]3 | [A,,A,]2 [A,,A,] [A,,A,][B,,G,][C,A,] | [C,A,]2 [C,A,] [D,A,D]3 | %22
 [E,A,C]2 [E,CE] [F,B,=D]2 [F,B,D] |[M:7/4] [E,A,E]2 [E,G,D] [A,,A,]3 z2 z2 z4 |] %24
V:3
 x6 | x6 | [E,G,]3 z3 | x6 | x6 | x6 | x6 | x6 | z3 .[E,G,]3 | .[A,,A,]3 z3 | z3 .A,3 | x6 | x6 | %13
 x6 | x6 | x6 | z3 .G,3 | x6 | z3 .A,3[K:bass] | x6 | x6 | x6 | x6 |[M:7/4] x14 |] %24
V:4
 x6 | x6 | x6 | x6 | x6 | x6 | .E3 z3 | x6 | x6 | x6 | x6 | x6 | z3 .E3 | x6 | x6 | x6 | B3 z3 | %17
 x6 | x6 | x6 | [Ec]2 [Ec] E-[EB][EA] | x6 | x6 |[M:7/4] x14 |] %24

